X: 87
T: No_183.krn
N: Derived from No_183.krn
%%abc-version 2.0
%%abcx-abcm2ps-target-version 5.9.1 (29 Sep 2008)
%%abc-creator hum2abc beta
%%abcx-conversion-date 2019/03/15 08:29:13
%%humdrum-veritas 693445424
%%humdrum-veritas-data 2558852491
%%linebreak <none>
%%barnumbers 0
L: 1/8
M: 3/4
%%staves {1 2}
V: 1 clef=bass
V: 2 clef=bass
K: F
[V:1] [K:clef=bass][M:3/4]G,2G,2G,C ||  
[V:2] [K:clef=bass][M:3/4]z G,, (3G,, z G,, (3G,, z G,, ||  
[V:1] [M:2/4]G,F, F,A, | 
[V:2] [M:2/4]z4 | 
[V:1] D,C, C,D, | 
[V:2] z4 | 
[V:1] D,2D,F, | 
[V:2] z4 | 
[V:1] D,C, C,C, | 
[V:2] z4 | 
[V:1] C,3C, | 
[V:2] z4 | 
[V:1] C,4 |]  
[V:2] z4 |]  



